X:1
T:Sims's Flotilla
M:4/4
L:1/8
K:F
F-F| F3/2 F/2 F3/2 F/2 A3/2 A/2 A3/2 F/2| G3/2 F/2 F3/2 E/2 F2- FF|\
 A3/2 A/2 A3/2 A/2 c3/2 c/2 c3/2 c/2| c3/2 G/2 G3/2 G/2 E2- Ec| d3/2 d/2 d3/2 d/2 d3/2 d/2 d3/2 d/2|\
 c3/2 c/2 c3/2 A/2 c2 A3/2- G/2| F3/2 F/2 F3/2 G/2 A3/2 A/2 A3/2 F/2|\
 G3/2 F/2 F3/2 E/2 F2||

